X:1
T: The Men from Mallow
C:
R:Reel
Q: 232
K:D
M:4/4
L:1/8
|:AG|G2 EF D2 ((3ABc) |d2 =cB AB cG|E2 DE =C2 CF|ED EF G2 AG|
F2 EF D2 ((3ABc) |d2 =cB AB cG|FD FA GE CE|1D2 DD D2 AG:|2D2 DD D2 ((3ABc) |
|:d2 cd AF DA|d2 cd A2 AB|=cB cA GE CE|=cB cA G2 ((3AB^c)|
d2 cd AF DA|d2 cd AB cG|FD FA GE DE|1D2 DD D2 ((3ABc):|2D2 DD D2||
